austria/municipalities/41122.svg

<?xml version="1.0" encoding="UTF-8"?>
<!DOCTYPE svg PUBLIC "-//W3C//DTD SVG 1.1//EN" "http://www.w3.org/Graphics/SVG/1.1/DTD/svg11.dtd">
<svg xmlns="http://www.w3.org/2000/svg" version="1.1" width="166px" height="207px" style="shape-rendering:geometricPrecision; text-rendering:geometricPrecision; image-rendering:optimizeQuality; fill-rule:evenodd; clip-rule:evenodd" xmlns:xlink="http://www.w3.org/1999/xlink">
<g><path style="opacity:1" fill="#000000" d="M -0.5,-0.5 C 54.8333,-0.5 110.167,-0.5 165.5,-0.5C 165.5,43.8333 165.5,88.1667 165.5,132.5C 159.762,165.428 141.429,188.595 110.5,202C 105.336,203.369 100.336,204.869 95.5,206.5C 86.8333,206.5 78.1667,206.5 69.5,206.5C 29.5404,196.538 6.20705,171.205 -0.5,130.5C -0.5,86.8333 -0.5,43.1667 -0.5,-0.5 Z"/></g>
<g><path style="opacity:1" fill="#fdfdfd" d="M 10.5,4.5 C 58.6649,3.33506 106.998,3.16839 155.5,4C 145.604,8.22924 138.771,15.3959 135,25.5C 131.769,33.8642 129.769,42.5308 129,51.5C 128.667,85.8333 128.333,120.167 128,154.5C 123.969,175.589 112.802,191.589 94.5,202.5C 93.5004,182.178 93.167,161.844 93.5,141.5C 91.1667,141.5 88.8333,141.5 86.5,141.5C 86.1667,222.833 85.8333,222.833 85.5,141.5C 83.1667,141.5 80.8333,141.5 78.5,141.5C 77.8333,222.833 77.1667,222.833 76.5,141.5C 74.8333,141.5 73.1667,141.5 71.5,141.5C 71.6666,161.836 71.5,182.169 71,202.5C 58.6133,195.78 49.2799,186.113 43,173.5C 39.987,166.794 37.987,159.794 37,152.5C 36.6667,118.167 36.3333,83.8333 36,49.5C 34.912,36.8051 30.912,25.1385 24,14.5C 20.2718,10.0598 15.7718,6.72648 10.5,4.5 Z"/></g>
<g><path style="opacity:1" fill="#006632" d="M 3.5,5.5 C 8.41559,5.28989 12.7489,6.78989 16.5,10C 22.9015,15.9691 27.4015,23.1357 30,31.5C 31.9799,38.3508 33.3132,45.3508 34,52.5C 34.3333,86.5 34.6667,120.5 35,154.5C 38.187,172.374 46.687,187.207 60.5,199C 48.8875,196.19 38.5541,190.69 29.5,182.5C 16.007,169.182 7.50699,153.182 4,134.5C 3.50001,91.5013 3.33334,48.5013 3.5,5.5 Z"/></g>
<g><path style="opacity:1" fill="#000000" d="M 81.5,5.5 C 83.3079,6.91791 83.9746,8.91791 83.5,11.5C 88.8333,12.1667 88.8333,12.8333 83.5,13.5C 83.5,14.5 83.5,15.5 83.5,16.5C 91.5,17.1667 91.5,17.8333 83.5,18.5C 83.3354,21.5184 83.502,24.5184 84,27.5C 87.5307,31.3972 90.6974,35.5639 93.5,40C 86.1667,40.6667 78.8333,40.6667 71.5,40C 74.3141,35.5253 77.4808,31.3586 81,27.5C 81.498,24.5184 81.6646,21.5184 81.5,18.5C 73.5,17.8333 73.5,17.1667 81.5,16.5C 81.5,15.5 81.5,14.5 81.5,13.5C 76.1667,12.8333 76.1667,12.1667 81.5,11.5C 81.5,9.5 81.5,7.5 81.5,5.5 Z"/></g>
<g><path style="opacity:1" fill="#006632" d="M 155.5,5.5 C 157.5,5.5 159.5,5.5 161.5,5.5C 161.667,49.1679 161.5,92.8346 161,136.5C 154.036,167.462 135.702,188.462 106,199.5C 105.5,199.333 105,199.167 104.5,199C 118.286,187.268 126.786,172.435 130,154.5C 130.333,121.167 130.667,87.8333 131,54.5C 131.761,40.4423 135.761,27.4423 143,15.5C 146.598,11.3058 150.765,7.97244 155.5,5.5 Z"/></g>
<g><path style="opacity:1" fill="#000000" d="M 62.5,41.5 C 75.5,41.5 88.5,41.5 101.5,41.5C 101.5,43.8333 101.5,46.1667 101.5,48.5C 88.5,48.5 75.5,48.5 62.5,48.5C 62.5,46.1667 62.5,43.8333 62.5,41.5 Z"/></g>
<g><path style="opacity:1" fill="#000000" d="M 52.5,49.5 C 72.1667,49.5 91.8333,49.5 111.5,49.5C 111.5,50.8333 111.5,52.1667 111.5,53.5C 91.8333,53.5 72.1667,53.5 52.5,53.5C 52.5,52.1667 52.5,50.8333 52.5,49.5 Z"/></g>
<g><path style="opacity:1" fill="#000000" d="M 56.5,54.5 C 73.5033,54.3334 90.5033,54.5001 107.5,55C 107.957,55.414 108.291,55.914 108.5,56.5C 107.167,57.1667 105.833,57.8333 104.5,58.5C 88.403,60.0396 72.403,59.7063 56.5,57.5C 56.5,56.5 56.5,55.5 56.5,54.5 Z"/></g>
<g><path style="opacity:1" fill="#000000" d="M 62.5,60.5 C 75.8333,60.5 89.1667,60.5 102.5,60.5C 102.5,77.5 102.5,94.5 102.5,111.5C 89.1667,111.5 75.8333,111.5 62.5,111.5C 62.5,94.5 62.5,77.5 62.5,60.5 Z"/></g>
<g><path style="opacity:1" fill="#fefffe" d="M 67.5,65.5 C 76.8333,65.5 86.1667,65.5 95.5,65.5C 95.5,79.1667 95.5,92.8333 95.5,106.5C 86.1667,106.5 76.8333,106.5 67.5,106.5C 67.5,92.8333 67.5,79.1667 67.5,65.5 Z"/></g>
<g><path style="opacity:1" fill="#000000" d="M 69.5,67.5 C 77.8333,67.5 86.1667,67.5 94.5,67.5C 94.5,79.8333 94.5,92.1667 94.5,104.5C 86.1667,104.5 77.8333,104.5 69.5,104.5C 69.5,92.1667 69.5,79.8333 69.5,67.5 Z"/></g>
<g><path style="opacity:1" fill="#000000" d="M 62.5,112.5 C 75.8375,112.333 89.1708,112.5 102.5,113C 103.453,114.955 104.787,116.622 106.5,118C 90.8333,118.667 75.1667,118.667 59.5,118C 60.6394,116.22 61.6394,114.386 62.5,112.5 Z"/></g>
<g><path style="opacity:1" fill="#000000" d="M 60.5,121.5 C 75.1818,121.167 89.8485,121.501 104.5,122.5C 97.1667,122.833 89.8333,123.167 82.5,123.5C 74.8016,123.497 67.4682,122.831 60.5,121.5 Z"/></g>
<g><path style="opacity:1" fill="#010101" d="M 71.5,127.5 C 71.5858,126.504 71.2524,125.671 70.5,125C 78.1667,124.333 85.8333,124.333 93.5,125C 88.044,128.746 85.3774,133.912 85.5,140.5C 82.8333,140.5 80.1667,140.5 77.5,140.5C 77.7886,137.351 77.2886,134.351 76,131.5C 76.1519,134.447 76.3185,137.447 76.5,140.5C 74.8333,140.5 73.1667,140.5 71.5,140.5C 71.3822,137.312 70.5489,134.312 69,131.5C 66.2751,130.063 64.1085,128.063 62.5,125.5C 66.0421,123.922 69.0421,124.588 71.5,127.5 Z"/></g>
<g><path style="opacity:1" fill="#000000" d="M 94.5,124.5 C 96.8333,124.5 99.1667,124.5 101.5,124.5C 101.649,125.552 101.483,126.552 101,127.5C 95.3904,130.054 92.8904,134.387 93.5,140.5C 91.5,140.5 89.5,140.5 87.5,140.5C 87.0228,134.788 89.1895,130.454 94,127.5C 94.4828,126.552 94.6495,125.552 94.5,124.5 Z"/></g>
<g><path style="opacity:1" fill="#fefffe" d="M 71.5,127.5 C 73.0281,127.517 73.5281,128.184 73,129.5C 72.2828,128.956 71.7828,128.289 71.5,127.5 Z"/></g>
<g><path style="opacity:1" fill="#fefffe" d="M -0.5,130.5 C 6.20705,171.205 29.5404,196.538 69.5,206.5C 46.1667,206.5 22.8333,206.5 -0.5,206.5C -0.5,181.167 -0.5,155.833 -0.5,130.5 Z"/></g>
<g><path style="opacity:1" fill="#fefffe" d="M 165.5,132.5 C 165.5,157.167 165.5,181.833 165.5,206.5C 142.167,206.5 118.833,206.5 95.5,206.5C 100.336,204.869 105.336,203.369 110.5,202C 141.429,188.595 159.762,165.428 165.5,132.5 Z"/></g>
</svg>

<svg xmlns="http://www.w3.org/2000/svg" width="166" height="207" style="shape-rendering:geometricPrecision;text-rendering:geometricPrecision;image-rendering:optimizeQuality;fill-rule:evenodd;clip-rule:evenodd"><path style="opacity:1" d="M-.5-.5h166v133c-5.738 32.928-24.071 56.095-55 69.5a236.853 236.853 0 0 0-15 4.5h-26c-39.96-9.962-63.293-35.295-70-76V-.5z"/><path style="opacity:1" fill="#fdfdfd" d="M10.5 4.5a3508.606 3508.606 0 0 1 145-.5c-9.896 4.23-16.729 11.396-20.5 21.5a94.098 94.098 0 0 0-6 26l-1 103c-4.031 21.089-15.198 37.089-33.5 48a931.135 931.135 0 0 1-1-61h-7c-.333 81.333-.667 81.333-1 0h-7c-.667 81.333-1.333 81.333-2 0h-5c.167 20.336 0 40.669-.5 61-12.387-6.72-21.72-16.387-28-29a75.766 75.766 0 0 1-6-21l-1-103c-1.088-12.695-5.088-24.361-12-35-3.728-4.44-8.228-7.774-13.5-10z"/><path style="opacity:1" fill="#006632" d="M3.5 5.5c4.916-.21 9.249 1.29 13 4.5 6.401 5.97 10.901 13.136 13.5 21.5 1.98 6.85 3.313 13.85 4 21l1 102c3.187 17.874 11.687 32.707 25.5 44.5-11.612-2.81-21.946-8.31-31-16.5-13.493-13.318-21.993-29.318-25.5-48-.5-42.999-.667-85.999-.5-129z"/><path style="opacity:1" d="M81.5 5.5c1.808 1.418 2.475 3.418 2 6 5.333.667 5.333 1.333 0 2v3c8 .667 8 1.333 0 2a40.936 40.936 0 0 0 .5 9A90.885 90.885 0 0 1 93.5 40c-7.333.667-14.667.667-22 0A88.132 88.132 0 0 1 81 27.5c.498-2.982.665-5.982.5-9-8-.667-8-1.333 0-2v-3c-5.333-.667-5.333-1.333 0-2v-6z"/><path style="opacity:1" fill="#006632" d="M155.5 5.5h6c.167 43.668 0 87.335-.5 131-6.964 30.962-25.298 51.962-55 63l-1.5-.5c13.786-11.732 22.286-26.565 25.5-44.5l1-100c.761-14.058 4.761-27.058 12-39 3.598-4.194 7.765-7.528 12.5-10z"/><path style="opacity:1" d="M62.5 41.5h39v7h-39v-7zM52.5 49.5h59v4h-59v-4zM56.5 54.5c17.003-.167 34.003 0 51 .5.457.414.791.914 1 1.5l-4 2c-16.097 1.54-32.097 1.206-48-1v-3zM62.5 60.5h40v51h-40v-51z"/><path style="opacity:1" fill="#fefffe" d="M67.5 65.5h28v41h-28v-41z"/><path style="opacity:1" d="M69.5 67.5h25v37h-25v-37zM62.5 112.5c13.338-.167 26.67 0 40 .5a14.506 14.506 0 0 0 4 5 552.224 552.224 0 0 1-47 0 44.327 44.327 0 0 0 3-5.5zM60.5 121.5a484.86 484.86 0 0 1 44 1l-22 1c-7.698-.003-15.032-.669-22-2z"/><path style="opacity:1" fill="#010101" d="M71.5 127.5c.086-.996-.248-1.829-1-2.5a132.434 132.434 0 0 1 23 0c-5.456 3.746-8.123 8.912-8 15.5h-8c.289-3.149-.211-6.149-1.5-9 .152 2.947.319 5.947.5 9h-5a19.935 19.935 0 0 0-2.5-9c-2.725-1.437-4.891-3.437-6.5-6 3.542-1.578 6.542-.912 9 2z"/><path style="opacity:1" d="M94.5 124.5h7a4.934 4.934 0 0 1-.5 3c-5.61 2.554-8.11 6.887-7.5 13h-6c-.477-5.712 1.69-10.046 6.5-13 .483-.948.65-1.948.5-3z"/><path style="opacity:1" fill="#fefffe" d="M71.5 127.5c1.528.017 2.028.684 1.5 2-.717-.544-1.217-1.211-1.5-2zM-.5 130.5c6.707 40.705 30.04 66.038 70 76h-70v-76zM165.5 132.5v74h-70a236.853 236.853 0 0 1 15-4.5c30.929-13.405 49.262-36.572 55-69.5z"/></svg>
